flatlaf-demo/src/main/resources/com/formdev/flatlaf/demo/icons/users.svg

<!-- Copyright 2000-2021 JetBrains s.r.o. Use of this source code is governed by the Apache 2.0 license that can be found in the LICENSE file. -->
<svg width="16" height="16" viewBox="0 0 16 16" fill="none" xmlns="http://www.w3.org/2000/svg">
<path d="M11.6 8.5C12.704 8.5 13.592 7.62 13.592 6.53571C13.592 5.45143 12.704 4.57143 11.6 4.57143C10.496 4.57143 9.6 5.45143 9.6 6.53571C9.6 7.62 10.496 8.5 11.6 8.5ZM5.6 7.71429C6.928 7.71429 7.992 6.66143 7.992 5.35714C7.992 4.05286 6.928 3 5.6 3C4.272 3 3.2 4.05286 3.2 5.35714C3.2 6.66143 4.272 7.71429 5.6 7.71429ZM11.6 10.0714C10.136 10.0714 7.2 10.7943 7.2 12.2321V14H16V12.2321C16 10.7943 13.064 10.0714 11.6 10.0714ZM5.6 9.28571C3.736 9.28571 0 10.205 0 12.0357V14H5.6V12.2321C5.6 11.5643 5.864 10.3936 7.496 9.50571C6.8 9.36429 6.128 9.28571 5.6 9.28571Z" fill="#6E6E6E"/>
</svg>

<svg width="16" height="16" viewBox="0 0 16 16" fill="none" xmlns="http://www.w3.org/2000/svg"><rect id="frame" width="16" height="16" fill="none"/><path d="M11.6 8.5c1.104 0 1.992-.88 1.992-1.964 0-1.085-.888-1.965-1.992-1.965s-2 .88-2 1.965c0 1.084.896 1.964 2 1.964zm-6-.786c1.328 0 2.392-1.053 2.392-2.357C7.992 4.053 6.928 3 5.6 3 4.272 3 3.2 4.053 3.2 5.357c0 1.304 1.072 2.357 2.4 2.357zm6 2.357c-1.464 0-4.4.723-4.4 2.161V14H16v-1.768c0-1.438-2.936-2.16-4.4-2.16zm-6-.785c-1.864 0-5.6.919-5.6 2.75V14h5.6v-1.768c0-.668.264-1.838 1.896-2.726-.696-.142-1.368-.22-1.896-.22z" fill="#6E6E6E"/></svg>
